X:1
T:Bonar (Steggall), SMD
T:Charles H. Steggall , 1849
T:Bonar (Steggall), SMD
T:Public Domain
C:Charles H. Steggall , 1849
Z:Public Domain
%%score ( 1 2 ) ( 3 4 )
L:1/8
M:none
K:Eb
V:1 treble 
V:2 treble 
V:3 bass 
V:4 bass 
V:1
 [DB]2 | [EG]2 E2 [EF]2 [DG]2 | [CE]6 [B,F]2 | [B,G]2 (CD) [EB]2 [EG]2 x2 | [DF]6 [DF]2 | %5
 [EG]2 [DB]2 [Ec]2 [Fd]2 | [Ee]2 [Fc]2 [Fd]2 [DB]2 | [Cc]2 [EG]2 (DE) [F=A]2 | [DB]6 [Ee]2 | %9
 [Dd]2 [B,B]2 [Cc]2 G2 | B6 [Ee]2 | [Fd]2 [EB]2 [Ec]2 [EG]2 | [DB]6 [G,E]2 | %13
 [B,F]2 [EG]2 [CA]2 [Ec]2 | [FB]2 [EG]2 [Ec]2 F2 | [EB]2 [B,E]2 [CE]2 [B,D]2 | [B,E]6 |] %17
V:2
 x2 | x2 E2 x4 | x8 | x2 c2 x6 | x8 | x8 | x8 | x4 B2 x2 | x8 | x6 G2 | B6 x2 | x8 | x8 | x8 | %14
 x6 F2 | x8 | x6 |] %17
V:3
 [B,,B,]2 | [E,B,]2 [G,,B,]2 [A,,C]2 [B,,B,]2 | [C,G,]6 [D,F,]2 | E,2 z F, G,2 z A,, x2 | %4
 [B,,B,]6 [B,,B,]2 | [E,B,]2 G,2 (G,=A,) [D,B,]2 | [C,C]2 [F,=A,]2 [B,,B,]2 [G,B,]2 | %7
 [E,G,]2 [E,B,]2 [G,B,]2 [F,C]2 | [B,,B,]6 [E,E]2 | [D,D]2 [B,,B,]2 [C,C]2 [G,,G,]2 | %10
 [B,,B,]6 [C,G,]2 | [B,,B,]2 [G,,B,]2 [A,,A,]2 [C,E,]2 | [B,,F,]6 [C,C]2 | %13
 [D,B,]2 [E,B,]2 F,2 [E,G,]2 | [D,B,]2 [E,B,]2 [A,,A,]2 [A,C]2 | %15
 [G,B,]2 [G,,G,]2 [A,,F,]2 [B,,F,]2 | [E,G,]6 |] %17
V:4
 x2 | x8 | x8 | E,3 (A,,2 G,,3) B,2 | x8 | x2 G,2 E,2 x2 | x8 | x8 | x8 | x8 | x8 | x8 | x8 | %13
 x4 F,2 x2 | x8 | x8 | x6 |] %17

